Origami/64x64/apps/quodlibet.svg

<svg width="64" height="64" version="1" xmlns="http://www.w3.org/2000/svg">
 <path d="m25 7.00056c-6.0752 0-11 4.924-11 11s4.9248 11 11 11c1.016-4e-3 2.024-0.148 3-0.43v24.43c0 4 4 4 8 4 14 0 14-16.666 14-22-2 2-14 16-14 5.332 0-7.564 0.048-15.194 0-22.726-0.212-5.9146-5.084-10.6-11-10.606z" style="fill:#4f4f4f"/>
 <path d="m25 16a3 3 0 0 1 3 3 3 3 0 0 1 -3 3 3 3 0 0 1 -3 -3 3 3 0 0 1 3 -3z" style="opacity:.2"/>
 <path d="m25 15.00056a3 3 0 0 1 3 3 3 3 0 0 1 -3 3 3 3 0 0 1 -3 -3 3 3 0 0 1 3 -3z" style="fill:#ffffff"/>
 <path d="m25 7c-6.0752 0-11 4.92432-11 11 0 0.168133 0.01648 0.332122 0.025391 0.498047 0.264159-5.840943 5.068826-10.498047 10.974609-10.498047 5.916 6e-3 10.788 4.691179 11 10.605469 7.5e-4 -0.334158 2e-3 -0.668518 0-1-0.212-5.91429-5.084-10.599469-11-10.605469zm25 27.998047c-2 1.999894-14 15.999471-14 5.332031v1c0 10.657379 11.971342-3.299724 13.988281-5.320312 4e-3 -0.343982 0.011719-0.739734 0.011719-1.011719z" style="fill:#ffffff;opacity:.1"/>
 <path d="M 14.025391,18.501953 C 14.01648,18.667812 14,18.831658 14,19 c 0,6.076 4.92503,11 11,11 1.015962,-0.004 2.024036,-0.147688 3,-0.429688 l 0,-1 C 27.024036,28.852312 26.015962,28.996 25,29 19.09444,29 14.28954,24.343203 14.025391,18.501953 Z M 50,36 l -0.01172,0.01172 C 49.95364,42.102295 49.284589,57 36,57 c -3.999848,0 -8,0 -8,-4 l 0,1 c 0,4 4.000152,4 8,4 13.999472,0 14,-16.666 14,-22 z" style="opacity:.2"/>
</svg>

<svg xmlns="http://www.w3.org/2000/svg" width="64" height="64" version="1">
 <path style="fill:#4f4f4f" d="m 25,7.00056 c -6.0752,0 -11,4.924 -11,11 0,6.076 4.9248,11 11,11 1.016,-0.004 2.024,-0.148 3,-0.43 l 0,24.43 c 0,4 4,4 8,4 14,0 14,-16.666 14,-22 -2,2 -14,16 -14,5.332 0,-7.564 0.048,-15.194 0,-22.726 -0.212,-5.9146 -5.084,-10.6 -11,-10.606 z"/>
 <path style="opacity:0.2" d="m 25,16 a 3,3 0 0 1 3,3 3,3 0 0 1 -3,3 3,3 0 0 1 -3,-3 3,3 0 0 1 3,-3 z"/>
 <path style="fill:#ffffff" d="m 25,15.00056 a 3,3 0 0 1 3,3 3,3 0 0 1 -3,3 3,3 0 0 1 -3,-3 3,3 0 0 1 3,-3 z"/>
 <path style="opacity:0.1;fill:#ffffff" d="M 25 7 C 18.9248 7 14 11.92432 14 18 C 14 18.168133 14.01648 18.332122 14.025391 18.498047 C 14.28955 12.657104 19.094217 8 25 8 C 30.916 8.006 35.788 12.691179 36 18.605469 C 36.00075 18.271311 36.002 17.936951 36 17.605469 C 35.788 11.691179 30.916 7.006 25 7 z M 50 34.998047 C 48 36.997941 36 50.997518 36 40.330078 L 36 41.330078 C 36 51.987457 47.971342 38.030354 49.988281 36.009766 C 49.992281 35.665784 50 35.270032 50 34.998047 z"/>
 <path style="opacity:0.2" d="M 14.025391,18.501953 C 14.01648,18.667812 14,18.831658 14,19 c 0,6.076 4.92503,11 11,11 1.015962,-0.004 2.024036,-0.147688 3,-0.429688 l 0,-1 C 27.024036,28.852312 26.015962,28.996 25,29 19.09444,29 14.28954,24.343203 14.025391,18.501953 Z M 50,36 l -0.01172,0.01172 C 49.95364,42.102295 49.284589,57 36,57 c -3.999848,0 -8,0 -8,-4 l 0,1 c 0,4 4.000152,4 8,4 13.999472,0 14,-16.666 14,-22 z"/>
</svg>
